X:11
M:C|
L:1/8
K:A
c|A2AE CEAB|cdBc AFFG|A/A/A AE CEAe|cAec B2A:|
d|ce e2 cff2|ecBA BFFd|cee2 cefg|agfe fefg|agfe fgaf|ecdB cAFA|

